svg/satellite_uplink.svg

<svg xmlns="http://www.w3.org/2000/svg" width="24" height="24" viewBox="0 0 24 24"><path d="M11.86 2l-.52 1.93c4.41.85 7.86 4.3 8.71 8.72l1.95-.52C20.95 7.03 16.96 3.04 11.86 2m-1.04 3.86l-.52 1.95c3.04.46 5.42 2.84 5.88 5.87l1.94-.52c-.66-3.72-3.57-6.66-7.3-7.3m-7.1 3.83A7.96 7.96 0 0 0 5 18.28V22h3v-1.59c.95.39 1.97.59 3 .59 1.14 0 2.27-.25 3.3-.72L3.72 9.69m6.07.07l-.53 1.96a3 3 0 0 1 3 3l1.97-.52c-.23-2.34-2.1-4.2-4.44-4.44z"/></svg>

<?xml version="1.0" encoding="UTF-8"?><!DOCTYPE svg PUBLIC "-//W3C//DTD SVG 1.1//EN" "http://www.w3.org/Graphics/SVG/1.1/DTD/svg11.dtd"><svg xmlns="http://www.w3.org/2000/svg" xmlns:xlink="http://www.w3.org/1999/xlink" version="1.1" width="24" height="24" viewBox="0 0 24 24"><path d="M11.86,2L11.34,3.93C15.75,4.78 19.2,8.23 20.05,12.65L22,12.13C20.95,7.03 16.96,3.04 11.86,2M10.82,5.86L10.3,7.81C13.34,8.27 15.72,10.65 16.18,13.68L18.12,13.16C17.46,9.44 14.55,6.5 10.82,5.86M3.72,9.69C3.25,10.73 3,11.86 3,13C3,14.95 3.71,16.82 5,18.28V22H8V20.41C8.95,20.8 9.97,21 11,21C12.14,21 13.27,20.75 14.3,20.28L3.72,9.69M9.79,9.76L9.26,11.72A3,3 0 0,1 12.26,14.72L14.23,14.2C14,11.86 12.13,10 9.79,9.76Z" /></svg>
